X:10
T:Princess Royal
S:Bacon (BC)
A:Adderbury
O:Irish
R:Reel
P:A(AB2)4
M:4/4
K:G %Transposed from F
P:A
B>A | G2 F2 E2 B>A | G2 F2 E4 | e2 d2 c2 e2 | d2 c2 B3 d | 
c2 B2 A2 G2 | F2 E2 D2 d2 | B2 AG A2 F2 | E4 E4 |]
P:B
d2 d2 d2 ef | g2 G2 G3 G | c2 B2 A2 G2 | F2 E2 D4 | G2 G2 A3 A | B2 B2 c4 | 
g2 G2 c4 | e2 G2 c4 | c2 B2 A2 G2 | F2 E2 D2 d2 | B2 AG A2 F2 | E4 E4 |]
